imagens/Segurança.svg

<svg xmlns="http://www.w3.org/2000/svg" xmlns:xlink="http://www.w3.org/1999/xlink" width="500" zoomAndPan="magnify" viewBox="0 0 375 374.999991" height="500" preserveAspectRatio="xMidYMid meet" version="1.0"><defs><clipPath id="c0f13a4224"><path d="M 187.5 0 C 83.945312 0 0 83.945312 0 187.5 C 0 291.054688 83.945312 375 187.5 375 C 291.054688 375 375 291.054688 375 187.5 C 375 83.945312 291.054688 0 187.5 0 Z M 187.5 0 " clip-rule="nonzero"/></clipPath><clipPath id="3fbbc2d1cd"><path d="M 95.390625 75 L 279.890625 75 L 279.890625 300 L 95.390625 300 Z M 95.390625 75 " clip-rule="nonzero"/></clipPath></defs><g clip-path="url(#c0f13a4224)"><rect x="-37.5" width="450" fill="#e28100" y="-37.499999" height="449.999989" fill-opacity="1"/></g><g clip-path="url(#3fbbc2d1cd)"><path fill="#ffffff" d="M 187.5 75 L 95.453125 115.910156 L 95.453125 177.273438 C 95.453125 257.351562 161.308594 294.742188 187.5 300 C 213.691406 294.742188 279.546875 257.351562 279.546875 177.273438 L 279.546875 115.910156 Z M 187.5 97.390625 L 259.089844 129.210938 L 259.089844 177.273438 C 259.089844 240.007812 210.152344 271.921875 187.5 278.90625 C 164.847656 271.921875 115.910156 240.007812 115.910156 177.273438 L 115.910156 129.210938 Z M 236.519531 144.492188 L 177.273438 203.71875 L 148.929688 175.375 L 134.464844 189.835938 L 177.273438 232.644531 L 250.960938 158.933594 Z M 236.519531 144.492188 " fill-opacity="1" fill-rule="nonzero"/></g></svg>

<svg xmlns="http://www.w3.org/2000/svg" width="500" height="500" version="1.0" viewBox="0 0 375 375"><defs><clipPath id="a"><path d="M187.5 0C83.945 0 0 83.945 0 187.5S83.945 375 187.5 375 375 291.055 375 187.5 291.055 0 187.5 0Zm0 0"/></clipPath><clipPath id="b"><path d="M95.39 75h184.5v225H95.39Zm0 0"/></clipPath></defs><g clip-path="url(#a)"><path fill="#e28100" d="M-37.5-37.5h450v450h-450z"/></g><g clip-path="url(#b)"><path fill="#fff" d="m187.5 75-92.047 40.91v61.363c0 80.079 65.856 117.47 92.047 122.727 26.191-5.258 92.047-42.648 92.047-122.727V115.91Zm0 22.39 71.59 31.82v48.063c0 62.735-48.938 94.649-71.59 101.633-22.652-6.984-71.59-38.898-71.59-101.633v-48.062Zm49.02 47.102-59.247 59.227-28.343-28.344-14.465 14.46 42.808 42.81 73.688-73.711Zm0 0"/></g></svg>
